src/assets/svg/icons/fa/nuevos/classic/light/van-shuttle classic light.svg

<svg xmlns="http://www.w3.org/2000/svg" viewBox="0 0 640 512"><!--! Font Awesome Pro 6.4.0 by @fontawesome - https://fontawesome.com License - https://fontawesome.com/license (Commercial License) Copyright 2023 Fonticons, Inc. --><path d="M32 88V192H160V64H56C42.7 64 32 74.7 32 88zm0 136V328c0 13.3 10.7 24 24 24H69.5c13.2-37.3 48.7-64 90.5-64s77.4 26.7 90.5 64H389.5c13.2-37.3 48.7-64 90.5-64s77.4 26.7 90.5 64H584c13.3 0 24-10.7 24-24V224H368 176 32zm160-32H352V64H192V192zm192 0H588.1L477.6 69.3c-3-3.4-7.4-5.3-11.9-5.3H384V192zM584 384h-8c0 53-43 96-96 96s-96-43-96-96H256c0 53-43 96-96 96s-96-43-96-96H56c-30.9 0-56-25.1-56-56V88C0 57.1 25.1 32 56 32H176 368h97.7c13.6 0 26.6 5.8 35.7 15.9L627.7 188.2c7.9 8.8 12.3 20.3 12.3 32.1V328c0 30.9-25.1 56-56 56zm-40 0a64 64 0 1 0 -128 0 64 64 0 1 0 128 0zM160 448a64 64 0 1 0 0-128 64 64 0 1 0 0 128z"/></svg>

<svg xmlns="http://www.w3.org/2000/svg" viewBox="0 0 640 512"><path d="M584 384H576C576 437 533 480 480 480C426.1 480 384 437 384 384H256C256 437 213 480 160 480C106.1 480 64 437 64 384H56C25.07 384 0 358.9 0 328V88C0 57.07 25.07 32 56 32H465.7C479.4 32 492.3 37.78 501.4 47.89L627.7 188.2C635.6 196.1 640 208.4 640 220.3V328C640 358.9 614.9 384 584 384zM32 192H160V64H56C42.75 64 32 74.75 32 88V192zM32 224V328C32 341.3 42.75 352 56 352H69.46C82.64 314.7 118.2 288 160 288C201.8 288 237.4 314.7 250.5 352H389.5C402.6 314.7 438.2 288 480 288C521.8 288 557.4 314.7 570.5 352H584C597.3 352 608 341.3 608 328V224H32zM192 192H352V64H192V192zM384 192H588.1L477.6 69.3C474.6 65.93 470.3 64 465.7 64H384V192zM480 320C444.7 320 416 348.7 416 384C416 419.3 444.7 448 480 448C515.3 448 544 419.3 544 384C544 348.7 515.3 320 480 320zM160 448C195.3 448 224 419.3 224 384C224 348.7 195.3 320 160 320C124.7 320 96 348.7 96 384C96 419.3 124.7 448 160 448z"/></svg>
